X:1
T:Da te parto cor mio
T:Claudio Saracini
T:Source : Le seconde Musische per cantar e sonar--Venetia---A.Vincenti---1620. Editor : André Vierendeels (25/11/15).
T:Notes : Original clefs : C1, F4 Editorial accidentals above the staff Figures above the BC are notated in original print Dedicated to Gherardo Saracini m 6,7 and 8, in S : "fa"sharp notated as "fa" natural in original print
T:Da te parto cor mio
C:Claudio Saracini
%%score 1 2
L:1/8
Q:1/4=86
M:4/4
K:C
V:1 treble nm="Soprano" snm="S"
V:2 bass nm="BC" snm="BC"
V:1
 AA c4 ^c2 | E6 E2 | E8 | E8 | ^cc d4 ^d2 |"^#""^#" F6 F2 |"^#" F8 |"^#" F8 | z B ^G4 G2 | %9
w: Da te par- *|to cor|mi-|o,|da te par- *|to cor|mi-|o,|io va- do,|
 z2 d4 ^FF | ^F8 | G8 | z e ^c4 c2 | z2 e4 ^GG | ^G8 | A8 :: _BB B4 AG | G4 G4 | BBB B2 GGG | %19
w: A- ni- ma|mi-|a,|io va- do,|A- ni- ma|mi-|a.|Pe- re- grin sco- no-|sciu- to|d'i- gno- ti li- di'ad ha- bi-|
 G6 D2 | D8 | D8 | A4 cc c2- | cc_AA A4 |"^-natural" A6 ^G2 | A4 A4 | z2 ^c2 cccc | d4 d4 | %28
w: tar l'a-|re-|ne,|er- me cam- pa-|* gne'ab- ban- do- na-|* ti'hor-|ro- ri,|sa- ran del- le mie|pe- ne|
 ^F2 FF ^G3 A | B8 | A8 | z dcB e3 A | ^G4 G4 | z2 ^c2 A4 | _BBB B2 BBB | _B4 =B4 | F8 | ^G3 G A4 | %38
w: de miei pas- sa- ti'ar-|do-|i!|Dell' i- dol mio per-|du- to,|ec- co|mi- se- ra'e fle- bi- l'e do-|len- *|te|del mio duol|
 ^c3 c d4 | z e ^G4 A2 |"^#""^#" BE/F/ G/A/B/c/ d/B/B/B/ B/B/B/B/ | %41
w: dal mio'ar- dir|me- mo- ri'ar-|den- * * * * * * * * * * * * * *|
 ^c/d/d/d/ d/d/d/c/ B/A/B/c/ c/c/c/c/ | ^c/B/A/^G/ G/G/G/G/ G/G/G/G/ G/G/G/G/ | A8 :| %44
w: ||te.|
V:2
"^-natural" A,,4 A,,4- |"^#" A,,4 A,,4 | A,,8- | A,,8 |"^#" A,,2 D,2 B,,4- |"^#" B,,8- | B,,8- | %7
 B,,8 | E,8 | B,,4 D,4 | D,,8 | G,,8 |"^#" A,,8 | ^C,4 E,4- | E,8 | A,,8 ::"^b" G,,8- | G,,8 | %18
"^-natural" G,,8- | G,,8 | D,8 | D,,8 | F,,8 |"^b" F,,8 |"^-natural" F,,4 B,,4 | A,,8 |"^#" A,,8 | %27
 ^F,,8- | F,,4 E,4 | E,8 | A,,8 | G,,4 ^C,4 | E,8 | ^C,8 |"^b" G,,8 |"^-natural" G,,2 A,,2 B,,4- | %36
 B,,8 | ^G,,4 ^F,,4 | A,,4 D,4 | E,8- | E,8- | E,8- | E,8 | A,,8 :| %44

